X:1
T:Tabasco, 12.10
T:Tabasco, 12.10
T:A. A. Wright, 1898
T:Public Domain Courtesy of the Cyber Hymnal™
C:A. A. Wright, 1898
Z:Public Domain
Z:Courtesy of the Cyber Hymnal™
%%score ( 1 2 ) ( 3 4 )
L:1/8
Q:1/4=100
M:3/4
K:G
V:1 treble 
V:2 treble 
V:3 bass 
V:4 bass 
V:1
 D2 | [DB]3 [EA] [DG][DA] | [DG]4 [GB]2 | [Gd]3 [GB] [Ge][GA] | [FA]4 D2 | [DB]3 [EA] [DG][DA] | %6
 [DG]4 [GB]2 | [Gd]4 (AB) | G4 |] %9
V:2
 D2 | x6 | x6 | x6 | x4 D2 | x6 | x6 | x4 F2 | G4 |] %9
V:3
 [G,B,]2 | [G,D]3 [C,C] [D,B,][D,C] | [G,B,]4 [G,D]2 | [G,B,]3 [G,D] [C,C][^C,E] | [D,D]4 [F,A,]2 | %5
 G,3 [C,C] [D,B,][D,C] | [G,B,]4 [G,D]2 | [D,B,]4 (CD) | [G,,B,]4 |] %9
V:4
 x2 | x6 | x6 | x6 | x6 | G,3 x3 | x6 | x4 D,2 | x4 |] %9

